assets/svg/1F510.svg

<svg xmlns="http://www.w3.org/2000/svg" viewBox="0 0 64 64" enable-background="new 0 0 64 64"><path fill="#989897" d="m27.458.833c-14.176-.604-25.779 12.526-25.456 26.19.032 1.37 1.118 2.513 2.51 2.513.871 0 1.738 0 2.613 0 .651 0 1.167-.209 1.554-.537.579-.396.979-1.046.957-1.976-.611-23.861 36.25-23.861 35.639 0-.031 1.37 1.173 2.513 2.515 2.513.871 0 1.742 0 2.609 0 1.396 0 2.483-1.143 2.515-2.513.346-14.571-11.311-25.579-25.456-26.19"/><path fill="#f79421" d="m.808 63.12c10.858 0 21.72 0 32.582 0 6.906 0 13.812 0 20.719 0 .444 0 .809-.266.809-.573 0-7.812 0-15.626 0-23.446 0-4.465 0-8.94 0-13.41 0-.31-.364-.57-.809-.57-10.857 0-21.715 0-32.577 0-6.911 0-13.817 0-20.723 0-.242 0-.426.058-.552.152 0 0-.009.009-.013.018 0 0-.018.004-.027.02-.132.083-.217.213-.217.379 0 7.815 0 15.629 0 23.441 0 4.471 0 8.943 0 13.415 0 .308.368.574.808.574"/><path fill="#e18327" d="m54.11 25.12h-11.04c8.806 21.84-12.173 33.911-29.31 37.651-.278.061-.517.227-.772.349h41.12c.444 0 .809-.266.809-.573v-36.858c-.0001-.309-.365-.569-.81-.569"/><g fill="#a7a7ab"><path d="m49.3 46.756c.166 2.231-1.45 10.08-4.145 10.278-2.694.199-5.442-7.326-5.608-9.559-.162-2.231 2-2.615 4.696-2.815 2.694-.197 4.895-.137 5.057 2.096"/><path d="m39.969 42.15c-5.079-1.68 3.929-4.01 9.771-2.236 5.698 1.731-7.136 3.11-9.771 2.236"/><path d="m52.824 55.08c0 2.197-1.383 3.98-3.09 3.98l0 0c-1.706 0-3.089-1.783-3.089-3.98v-32.362c0-2.196 1.383-3.977 3.089-3.977l0 0c1.707 0 3.09 1.781 3.09 3.977v32.362"/><path d="m49.734 0c-7.755 0-14.04 6.282-14.04 14.04s6.281 14.04 14.04 14.04 14.03-6.284 14.03-14.04-6.277-14.04-14.03-14.04m.382 17.18c-2.608 0-4.724-2.113-4.724-4.719 0-2.609 2.115-4.724 4.724-4.724 2.604 0 4.72 2.115 4.72 4.724 0 2.606-2.115 4.719-4.72 4.719"/></g><path fill="#cdcccb" d="m42.02 2.281c-3.804 2.503-6.322 6.821-6.322 11.724 0 7.75 6.281 14.04 14.04 14.04.135 0 .274-.02.409-.022-13.768-6.824-10.369-20.995-8.123-25.739"/></svg>

<?xml version="1.0" encoding="UTF-8" standalone="no"?>
<!-- Generator: Adobe Illustrator 16.0.0, SVG Export Plug-In . SVG Version: 6.00 Build 0)  -->

<svg
   xmlns:dc="http://purl.org/dc/elements/1.1/"
   xmlns:cc="http://creativecommons.org/ns#"
   xmlns:rdf="http://www.w3.org/1999/02/22-rdf-syntax-ns#"
   xmlns:svg="http://www.w3.org/2000/svg"
   xmlns="http://www.w3.org/2000/svg"
   xmlns:sodipodi="http://sodipodi.sourceforge.net/DTD/sodipodi-0.dtd"
   xmlns:inkscape="http://www.inkscape.org/namespaces/inkscape"
   version="1.1"
   id="Layer_1"
   x="0px"
   y="0px"
   width="64px"
   height="64px"
   viewBox="0 0 64 64"
   enable-background="new 0 0 64 64"
   xml:space="preserve"
   inkscape:version="0.48.5 r10040"
   sodipodi:docname="1F510.svg"
   inkscape:export-filename="D:\TESTINGEMOJI\SVGTEST\1F510.png"
   inkscape:export-xdpi="90"
   inkscape:export-ydpi="90"><metadata
   id="metadata4759"><rdf:RDF><cc:Work
       rdf:about=""><dc:format>image/svg+xml</dc:format><dc:type
         rdf:resource="http://purl.org/dc/dcmitype/StillImage" /><dc:title></dc:title></cc:Work></rdf:RDF></metadata><defs
   id="defs4757" /><sodipodi:namedview
   pagecolor="#ffffff"
   bordercolor="#666666"
   borderopacity="1"
   objecttolerance="10"
   gridtolerance="10"
   guidetolerance="10"
   inkscape:pageopacity="0"
   inkscape:pageshadow="2"
   inkscape:window-width="640"
   inkscape:window-height="480"
   id="namedview4755"
   showgrid="false"
   inkscape:zoom="3.6875"
   inkscape:cx="32"
   inkscape:cy="32"
   inkscape:window-x="295"
   inkscape:window-y="162"
   inkscape:window-maximized="0"
   inkscape:current-layer="Layer_1" />
<g
   id="g4737">
	<path
   fill="#989897"
   d="M27.458,0.833C13.282,0.229,1.679,13.359,2.002,27.018c0.032,1.37,1.118,2.513,2.51,2.513   c0.871,0,1.738,0,2.613,0c0.651,0,1.167-0.209,1.554-0.537c0.579-0.396,0.979-1.046,0.957-1.976   c-0.611-23.861,36.254-23.861,35.639,0c-0.031,1.37,1.173,2.513,2.515,2.513c0.871,0,1.742,0,2.609,0   c1.396,0,2.483-1.143,2.515-2.513C53.26,12.447,41.603,1.439,27.458,0.833z"
   id="path4739" />
	<path
   fill="#F79421"
   d="M0.808,63.123c10.858,0,21.72,0,32.582,0c6.906,0,13.812,0,20.719,0c0.444,0,0.809-0.266,0.809-0.573   c0-7.812,0-15.626,0-23.446c0-4.465,0-8.94,0-13.41c0-0.31-0.364-0.57-0.809-0.57c-10.857,0-21.715,0-32.577,0   c-6.911,0-13.817,0-20.723,0c-0.242,0-0.426,0.058-0.552,0.152c0,0-0.009,0.009-0.013,0.018c0,0-0.018,0.004-0.027,0.02   C0.085,25.397,0,25.527,0,25.693c0,7.815,0,15.629,0,23.441c0,4.471,0,8.943,0,13.415C0,62.857,0.368,63.123,0.808,63.123z"
   id="path4741" />
	<path
   fill="#E18327"
   d="M54.108,25.124H43.066c8.806,21.84-12.173,33.911-29.308,37.651c-0.278,0.061-0.517,0.227-0.772,0.349   h41.123c0.444,0,0.809-0.266,0.809-0.573V25.693C54.917,25.384,54.553,25.124,54.108,25.124z"
   id="path4743" />
	<path
   fill="#A7A7AB"
   d="M49.304,46.756c0.166,2.231-1.45,10.08-4.145,10.278c-2.694,0.199-5.442-7.326-5.608-9.559   c-0.162-2.231,2.003-2.615,4.696-2.815C46.941,44.463,49.142,44.523,49.304,46.756z"
   id="path4745" />
	<path
   fill="#A7A7AB"
   d="M39.969,42.146c-5.079-1.68,3.929-4.011,9.771-2.236C55.438,41.641,42.604,43.02,39.969,42.146z"
   id="path4747" />
	<path
   fill="#A7A7AB"
   d="M52.824,55.083c0,2.197-1.383,3.98-3.09,3.98l0,0c-1.706,0-3.089-1.783-3.089-3.98V22.721   c0-2.196,1.383-3.977,3.089-3.977l0,0c1.707,0,3.09,1.781,3.09,3.977V55.083z"
   id="path4749" />
	<path
   fill="#A7A7AB"
   d="M49.734,0c-7.755,0-14.036,6.282-14.036,14.037s6.281,14.039,14.036,14.039s14.032-6.284,14.032-14.039   S57.489,0,49.734,0z M50.116,17.185c-2.608,0-4.724-2.113-4.724-4.719c0-2.609,2.115-4.724,4.724-4.724   c2.604,0,4.72,2.115,4.72,4.724C54.836,15.072,52.721,17.185,50.116,17.185z"
   id="path4751" />
	<path
   fill="#CDCCCB"
   d="M42.021,2.281c-3.804,2.503-6.322,6.821-6.322,11.724c0,7.75,6.281,14.037,14.036,14.037   c0.135,0,0.274-0.02,0.409-0.022C36.376,21.196,39.775,7.025,42.021,2.281z"
   id="path4753" />
</g>
</svg>
